X:1
T:Title
%%score { 1 | 2 }
L:1/8
Q:1/4=100
M:4/4
K:Db
V:1 treble nm="Grand Piano"
V:2 bass 
V:1
 [FA]2 [FB]>[A,DF] [A,FA]2 [A,EG][A,EG] | [CEG]2 [A,CE][CEG] [CEG] [A,DF]3 | %2
w: H.~L.~Gilmour * * * * *||
 [DFB]2 [DFc][Fd] [Fd]2 [FA]F | F2 ED [A,CE]3 [CGA] | [A,FA]2 [FB][Ac] [Ad]2 [Ac][Fd] | %5
w: |||
 [Ge]2 [Gd][GB] [GB] [FA]3 | [Gc]2 [CGB][CGA] [DA] [DAd]2 [DGB] | [DFA]2 [Gc][Fd] [Fd]4 | %8
w: |||
 [Gc]2 [GB][GA] A [Ad]3 | e2 cB [FA] [Fd]3 | B2 Bc e2 dB | [FA]2 [_F=G][GB] [=FA]3 [E_G] | %12
w: ||||
 [DF]2 [FB][FB] [EB] [EA]2 [EA] | [CA]2 [CE][CG] [CG] F3 | B2 c[Fd] [Fd] [FA]2 [Fd] | %15
w: |||
[M:9/8] f f2- fe[Fd]- [Fd]3 |] %16
w: |
V:2
 [D,A,]2 [D,A,]>D, D,2 C,C, | A,,2 A,,A,, A,, D,3 | B,,2 B,,[B,,B,] [D,A,]2 [D,A,][D,A,D] | %3
 [E,=G,D]2 [E,G,D][E,G,] A,,3 G,, | D,2 [D,=G,][D,_G,] [D,F,]2 [D,F,][D,A,] | %5
 [D,A,]2 [D,A,][D,D] [D,D] [D,D]3 | [E,A,]2 E,E, F, F,2 G, | A,2 [A,,A,][A,,A,] [D,A,]4 | %8
 [E,A,]2 [E,A,][E,A,] [F,D] [F,D]3 | [A,CG]2 [A,G][A,CG][K:bass] [D,D] [D,D]3 | %10
 [G,DG]2 [G,DG][G,B,G] [G,B,G]2 [G,B,G][G,DG] | [D,D]2 [D,B,][D,D] [D,D]3 [A,C] | %12
 [D,A,]2 [D,A,][D,A,] [C,A,] [C,A,]2 [C,A,] | [A,,A,]2 [A,,A,][A,,A,] [A,,A,] [D,A,D]3 | %14
 [G,D]2 [E,G,E][D,A,] [D,A,] [D,D]2 [D,D] |[M:9/8] [A,,CG] [A,,CG]2- [A,,CG][A,,CG][D,D]- [D,D]3 |] %16

